icons/code-s-slash-fill.svg

<svg viewBox="0 0 24 24" fill="currentColor" xmlns="http://www.w3.org/2000/svg">
    <path d="M24 12L18.3431 17.6569L16.9289 16.2426L21.1716 12L16.9289 7.75736L18.3431 6.34315L24 12ZM2.82843 12L7.07107 16.2426L5.65685 17.6569L0 12L5.65685 6.34315L7.07107 7.75736L2.82843 12ZM9.78845 21H7.66009L14.2116 3H16.3399L9.78845 21Z"/>
</svg>

<svg xmlns="http://www.w3.org/2000/svg" viewBox="0 0 24 24">
    <g>
        <path fill="none" d="M0 0h24v24H0z"/>
        <path d="M24 12l-5.657 5.657-1.414-1.414L21.172 12l-4.243-4.243 1.414-1.414L24 12zM2.828 12l4.243 4.243-1.414 1.414L0 12l5.657-5.657L7.07 7.757 2.828 12zm6.96 9H7.66l6.552-18h2.128L9.788 21z"/>
    </g>
</svg>
